!!!OTL: Leichter Abschied (104), S. 255f
!!!id: T0266
**kern
*clefG2
*k[b-]
*F:
{8c
=1
4f
4f
=2
4a
8f
8a
=3
4cc
8cc
8b-
=4
4a}
4r
=5
{4.cc
8a
=6
4.f
8dd
=7
8cc
8a
8b-
8g
=8
4f}
4r
=9
{4a
4a
=10
4g
8g
8a
=11
4b-
4b-
=12
4a}
4r
=13
{4cc
4ff
=14
4dd
8cc
8b-
=15
4a
4g
=16
4f}
8r
==
*-
!!!minrhy: 8
!!!meters: 2/4 ]  ZZ[4
!!!cut: Leichter Abschied (104), S. 255f
!!!reg: Luxemburg
!!!trd: Singendes Volk, Esch-Alzette 1937 posth.
!!!rhy1: X  X_X_  X_XX  X_XX  X_0_
!!!rhy2: X_.X  X_.X  XXXX  X_0_
!!!key: T0266  08  F 2/4 ]  ZZ[4
!!!mod: SECHSTONSKALA DUR ?]  AMBITUS[11
!!!kad: 3131
!!!akz: 1353_5151_3243_5631_
!!!fot: 'a__b__c__d__
!!!for: 'a__b__c__cv_
!!!fok: '^a_\__-__^d_
!! PHRAS[VORWIEGEND VOLLTAKTIG]
!!!fkt: Liebeslieder
!!!bem: Burglinster, hhh Eugen Lemmer (Lehrer, Esch-Alzette), 1914
!! THILL, Mathias:
!! PR[29] 2K[3] 2G[7] 3K[6] 3G[4] 4A[9] 4Ü[0] 5A[1] 6K[0] 6G[3]
!! 7K[0] 7G[0] 8A[0] MEHR[0] SI[33] ABS[69] SR[10] SP[23]
!! ST[18] 2k[6] 2g[19] 3k[0] 3g[3] 4d[4] 4ü[0] 5d[1] 6k[3] 6g[0]
!! 7k[1] 7g[0] 8d[0] mehr[0] si[38] dm[-5] sr[25] sp[13]
!! 1F[59] 2F[35] 3F[0] 4F[0] LF[0] 2P[5] 3P[0] 4P[0] TRI[0] DF[3] AB[74]
!! TF[0] U3K[0] U3[3] U4[0] U4Ü[0] U5[19] U6K[0] U6[1] U7K[0] U7[6]
!! N1[44] N2K[0] N2[13] N3K[0] N3[9] N4[4] N4Ü[0] N5[1] N6K[0] N6[0]
!!!n7k: 0] N7[0] O1[0] O2K[0] O2[0] O3K[0] O3[0] HÖ[0
